icons/palette.svg

<?xml version="1.0" encoding="UTF-8" standalone="no"?>
<svg width="24px" height="24px" viewBox="0 0 24 24" version="1.1" xmlns="http://www.w3.org/2000/svg" xmlns:xlink="http://www.w3.org/1999/xlink">
    <!-- Generator: Sketch 40.1 (33804) - http://www.bohemiancoding.com/sketch -->
    <title>palette</title>
    <desc>Created with Sketch.</desc>
    <defs></defs>
    <g id="Page-1" stroke="none" stroke-width="1" fill="none" fill-rule="evenodd">
        <g id="palette" fill="#777777">
            <path d="M11.999974,2 C6.50004036,2 2,6.50005208 2,12 C2,17.5002083 6.50004036,22 11.999974,22 C12.9445548,22 13.6666363,21.2779167 13.6666363,20.3333333 C13.6666363,19.8890104 13.5000742,19.5 13.2223145,19.2222396 C12.9445548,18.9444271 12.7779928,18.5554167 12.7779928,18.1110938 C12.7779928,17.1665625 13.5000742,16.4444271 14.4446551,16.4444271 L16.4444416,16.4444271 C19.5000065,16.4444271 22,13.9444271 22,10.8889063 C21.9999479,6.00010417 17.500168,2 11.999974,2 Z M5.5,12 C6.32842712,12 7,11.3284271 7,10.5 C7,9.67157288 6.32842712,9 5.5,9 C4.67157288,9 4,9.67157288 4,10.5 C4,11.3284271 4.67157288,12 5.5,12 Z M8.5,8 C9.32842712,8 10,7.32842712 10,6.5 C10,5.67157288 9.32842712,5 8.5,5 C7.67157288,5 7,5.67157288 7,6.5 C7,7.32842712 7.67157288,8 8.5,8 Z M13.5,7 C14.3284271,7 15,6.32842712 15,5.5 C15,4.67157288 14.3284271,4 13.5,4 C12.6715729,4 12,4.67157288 12,5.5 C12,6.32842712 12.6715729,7 13.5,7 Z M17.5,10 C18.3284271,10 19,9.32842712 19,8.5 C19,7.67157288 18.3284271,7 17.5,7 C16.6715729,7 16,7.67157288 16,8.5 C16,9.32842712 16.6715729,10 17.5,10 Z" id="Combined-Shape"></path>
        </g>
    </g>
</svg>

<svg xmlns="http://www.w3.org/2000/svg" viewBox="0 0 24 24">
  <path fill-rule="evenodd" d="M12 2C6.5 2 2 6.5 2 12s4.5 10 10 10c.945 0 1.667-.722 1.667-1.667 0-.444-.167-.833-.445-1.11-.277-.28-.444-.668-.444-1.112 0-.943.722-1.666 1.667-1.666h2c3.055 0 5.555-2.5 5.555-5.555C22 6 17.5 2 12 2zM5.5 12c.828 0 1.5-.672 1.5-1.5S6.328 9 5.5 9 4 9.672 4 10.5 4.672 12 5.5 12zm3-4c.828 0 1.5-.672 1.5-1.5S9.328 5 8.5 5 7 5.672 7 6.5 7.672 8 8.5 8zm5-1c.828 0 1.5-.672 1.5-1.5S14.328 4 13.5 4 12 4.672 12 5.5 12.672 7 13.5 7zm4 3c.828 0 1.5-.672 1.5-1.5S18.328 7 17.5 7 16 7.672 16 8.5s.672 1.5 1.5 1.5z"/>
</svg>
